!!!!SEGMENT: pl-kc--40102-iii-1-saf--002-055_zielenski-mikolaj--communiones-totius-anni-in-festo-dedicationis-s-michaelis-archangeli-benedicite-omnes-angeli-domini-dominum.krn
!!!cenid: 16xx:1586
!!!COM: Zieleński, Mikołaj
!!!COM-rismID: pe30013481
!!!CDT: <1611->1611
!!!CNT: Polish
!!!GTL: Communiones totius anni
!!!OTL: In festo Dedicationis S. Michaelis Archangeli/Benedicite omnes Angeli Domini Dominum
!!!OMV: 055
!!!PDT: 1611
!!!AGN:
!!!YEC: Copyright 2022 Narodowy Instytut Fryderyka Chopina (https://polishscores.org)
!!!YEM: License CC-BY-4.0 (https://creativecommons.org/licenses/by/4.0)
!!!SMS-siglum: PL-Kc
!!!SMS-shelfmark: 40102 III/1 Saf.
!!!SMS-shelfwork: 002-055 G
!!!SMS-variant:
!!!SMS-altvar:
!!!NIFC-rismSourceID: 990069887
!!!NIFC-rismChildID: 990069887
!!!NIFC-islandoraID: none
!!!URL-pdf-islandora:
!!!URL-scan: https://cyfrowe.mnk.pl/dlibra/publication/24235/edition/23926/content?ref=desc @EN{Scan on The National Museum in Krakow Website} @PL{Skany w portalu Biblioteka Cyfrowa Muzeum Narodowego w Krakowie}
!!!IIIF:
!!!ONB-nifc: UWAGA: str. 75-76. Numer w źródle: 64. Uwaga: W xml metrum 2/1 do źródłowego C| i odpowiednio 3/1 do 3/2
!!!AIN: 4 organ
!!!key:
**kern	**kern	**kern	**kern
*group1	*group1	*group1	*group1
*part4	*part3	*part2	*part1
*staff4	*staff3	*staff2	*staff1
*I""Organo	*I""Organo	*I""Organo	*I""Organo
*I''org	*I''org	*I''org	*I''org
*Iorgan	*Iorgan	*Iorgan	*Iorgan
*ICklav	*ICklav	*ICklav	*ICklav
*clefF4	*clefC4	*clefC3	*clefC1
*k[b-]	*k[b-]	*k[b-]	*k[b-]
*g:	*g:	*g:	*g:
*M2/1	*M2/1	*M2/1	*M2/1
*met(C|)	*met(C|)	*met(C|)	*met(C|)
=1	=1	=1	=1
!	!	!LO:TX:a:t=Benedicite omnes Angeli Domini Dominum.	!LO:TX:a:t=64. In feſto' Dedicationis S. Michaelis Archaugeli. à 6.
00r	1.G	1.g	1.dd
.	2G/	2g\	2dd\
=2-	=2-	=2-	=2-
.	2.C/	2.g\	2.ee-X\
.	4C/	4g\	4ee-\
.	2F/	2f\	2cc\
.	4F/	4f\	4cc\
.	4F/	4f\	4cc\
=3	=3	=3	=3
00r	4.BB-/	4.f\	4.dd\
.	8BB-/	8f\	8dd\
.	2BB-/	2f\	2dd\
.	4B-\	4f\	4dd\
.	4G/	4g\	4ee\
.	2.F/	2.a\	2.ff\
=4-	=4-	=4-	=4-
.	.	.	.
.	4D/	4a\	4ff\
.	2G/	2g\	2dd\
.	1C	1g	1ee-X
=5	=5	=5	=5
00r	2D/	2f\	2dd\
.	1G	1g	1dd
.	2E/	2g\	2ee\
=6-	=6-	=6-	=6-
.	2.D/	2.a\	2.ff\
.	4D/	4a\	4ff\
.	2A/	2a\	2ee\
.	[y2B-\	[y2f\	[y2dd\
*	*	*custos:f	*
!	!	!LO:LB:g=original	!
=7	=7	=7	=7
!	!LO:N:xstem:cue	!LO:N:xstem:cue	!LO:N:xstem:cue
0r	4B-\]	4f\]	4dd\]
.	4B-\	4f\	4dd\
.	2G/	4g\	4ee\
.	.	4f\	4dd\
*	*custos:A	*	*custos:cc
!	!LO:LB:g=original	!	!LO:LB:g=original
.	1.A	4e\	4cc#X\
.	.	8d\	4a\
.	.	8e\	.
.	.	2f\	2.dd\
*custos:D	*	*	*
!LO:LB:g=original	!	!	!
=8-	=8-	=8-	=8-
1r	.	2.e\	.
.	.	.	8cc#X\
!	!	!	!LO:SIC:v:s=8bn\
.	.	.	8b-\
.	2A/	.	2cc#\
.	.	4e\	.
2r	2D/	2d\	[<1dd
[<2D/	[<2A/	[<2d\	.
=9	=9	=9	=9
2D/]	2A/]	2d\]	1dd]
2D/	2A/	2d\	.
!	!LO:N:acc=#	!	!
2.GG/	2.Bn\	2.d\	1r
4GG/	4B\	4d\	.
=10-	=10-	=10-	=10-
2C/	2c\	2e\	0r
4C/	4c\	4e\	.
4C/	4c\	4e\	.
4.FF/	4.c\	4.f\	.
8FF/	8c\	8f\	.
2FF/	2c\	2f\	.
=11	=11	=11	=11
4F\	4A/	4c/	00r
4D/	4B-\	4d\	.
2.C/	2.c\	2.e\	.
4AA/	4c\	4e\	.
2D/	4A/	2f\	.
.	2A/	.	.
=12-	=12-	=12-	=12-
1BB-	.	1d	.
.	8G/	.	.
.	8F/	.	.
.	2G/	.	.
2AA/	2A/	2c#X/	.
2D/	2A/	2d\	.
=13	=13	=13	=13
2C/	2c\	2e\	00r
2.BB-/	2.d\	2.f\	.
4BB-/	4d\	4f\	.
2GG/	2d\	2g\	.
=14-	=14-	=14-	=14-
4.C/	4.e\	4.e\	.
8C/	8e\	8e\	.
2AA/	4f\	1a	.
.	4e\	.	.
[y1D	4d\	.	.
.	4c\	.	.
.	2d\	[y2g\	.
=15	=15	=15	=15
!LO:N:xstem:cue:vis=4	!	!LO:N:xstem:cue	!
2D\]	2.d\	4g\]	1r
.	.	8f#X\	.
.	.	8e\	.
2D/	.	2f#\	.
.	4d\	.	.
1GG	1d	2g\	2r
.	.	4G/	4dd\
.	.	4g\	4b-\
=16-	=16-	=16-	=16-
1r	1r	4.fny\	4.cc\
.	.	8f\	8cc\
.	.	2B-/	2dd\
4BB-/	4B-\	4f\	4dd\
4GG/	4B-\	4g\	4ee\
[y2FF/	[y2A/	[y2a\	[y2ff\
=17	=17	=17	=17
!LO:N:xstem:cue	!LO:N:xstem:cue	!LO:N:xstem:cue	!LO:N:xstem:cue
4FF/]	4A/]	4a\]	4ff\]
4FF/	4A/	4a\	4ff\
2F\	2c\	2f\	2cc\
4C/	1c	1g	1ee-X
4D/	.	.	.
4E-X\	.	.	.
4C/	.	.	.
=18-	=18-	=18-	=18-
2G\	2d\	2g\	2dd\
1D	2.d\	1a	1ff
.	4A/	.	.
2AA/	2c\	2a\	2eeny\
=19	=19	=19	=19
2.BB-/	2.d\	2.f\	2.dd\
4BB-/	4B-\	4f\	4dd\
2F\	2c\	2f\	2cc\
2.C/	2.c\	2.g\	2.ee-X\
=20-	=20-	=20-	=20-
.	.	.	.
4C/	4c\	4g\	4ee-y\
2D/	2F/	2f\	2dd\
1E-X	1r	(<1g	4cc\
.	.	.	4b-\
.	.	.	[y2b-\
=21	=21	=21	=21
!	!	!	!LO:N:xstem:cue
1F	2.c\	2.f\)	4b-\]
.	.	.	8a\
.	.	.	8g\
.	.	.	2a\
.	4c\	4f\	.
2BB-/	2B-\	2f\	2b-\
1BB-	1F	1f	1dd
=22-	=22-	=22-	=22-
.	.	.	.
2FF/	2F/	2f\	2cc\
2.C/	2.G/	2.e-X\	2.cc\
4C/	4G/	4e-\	4cc\
=23	=23	=23	=23
2C/	2G/	2e-y\	2g/
2.GG/	2.G/	2.d\	2.b-\
4GG/	4G/	4d\	4b-\
2GG/	2G/	2d\	2b-\
=24-	=24-	=24-	=24-
2.D/	1A	2.d\	4a\
.	.	.	4g/
.	.	.	4f/
4C/	.	4eny\	4e/
2BB-/	2.D/	4f\	2d/
.	.	4d\	.
4AA/	.	2g\	[y2dd\
4GG/	4D/	.	.
=25	=25	=25	=25
!LO:TX:b:t=Partitura Nicolai Zielenski.	!	!	!LO:N:xstem:cue
1.D	2F#X/	2d\	4dd\]
.	.	.	4cc\
.	2G/	1d	2b-\
.	1A	.	2a\
2D/	.	2d\	2a\
=26-	=26-	=26-	=26-
*M3/2	*M3/2	*M3/2	*M3/2
!	!LO:N:acc=#	!	!
0.GG	0.Bn	0.d	0.g
=27-	=27-	=27-	=27-
0G	0d	0.r	0.r
1F	1d	.	.
=28	=28	=28	=28
0E-X	0B-	00.r	00.r
1C	1c	.	.
=29-	=29-	=29-	=29-
0.BB-	0.d	.	.
=30-	=30-	=30-	=30-
!LO:TX:b:t=K	!	!	!
00.r	0B-	0dd	00.r
.	1A	1cc	.
=31-	=31-	=31-	=31-
!	!	!	!LO:SIC:v:t=błędna wysokość custos
.	0G	0b-	.
.	1c	1g	.
*custos:D	*custos:F	*custos:a	*custos:dd
!!LO:PB:g=original
=32	=32	=32	=32
0.r	0.F	0.a	0.r
=33-	=33-	=33-	=33-
0D	1.F	0a	0ff
.	2G/	.	.
1C	1A	1a	1ee
=34-	=34-	=34-	=34-
0BB-	0D	0f	0dd
1BB-	1D	1g	1dd
=35-	=35-	=35-	=35-
0.AA	0.A	0.e	0.cc#X
=36	=36	=36	=36
1.D	1.A	0.r	0.r
2D/	2A/	.	.
1D	1A	.	.
=37-	=37-	=37-	=37-
1BB-	1B-	1.f	1.dd
1BB-	1B-	.	.
.	.	2f\	2dd\
1BB-	1F	1f	1dd
=38-	=38-	=38-	=38-
0.FF	0.F	1a	1ff
.	.	1a	1ff
.	.	1a	1ff
=39-	=39-	=39-	=39-
1.C	1.G	0.g	0.ee
2C/	2G/	.	.
1C	1G	.	.
=40	=40	=40	=40
1GG	1G	1.g	1.dd
1GG	1G	.	.
.	.	2g\	2dd\
1GG	1G	1g	1dd
=41-	=41-	=41-	=41-
0.D	0.A	1f	1dd
.	.	1f	1dd
.	.	1f	1dd
=42-	=42-	=42-	=42-
1.AA	1.A	0.e	0.cc#X
2AA/	2A/	.	.
1AA	1A	.	.
=43-	=43-	=43-	=43-
0D	1.A	1.f	1.dd
.	2F/	2f\	2dd\
1BB-	1B-	1f	1dd
=44	=44	=44	=44
0.F	0.c	1f	1cc
.	.	1f	1cc
.	.	1f	1cc
=45-	=45-	=45-	=45-
0C	0c	0g	0ee-X
1C	1c	1g	1ee-
=46-	=46-	=46-	=46-
0G	0d	0g	0dd
1GG	1d	1d	1b-
=47-	=47-	=47-	=47-
0D	0A	0d	0a
1D	1A	1d	1a
=48	=48	=48	=48
*M2/1	*M2/1	*M2/1	*M2/1
*met(C|)	*met(C|)	*met(C|)	*met(C|)
!	!LO:N:acc=#	!	!
2GG/	2Bn\	0d	1g
2G\	2d\	.	.
4F#X\	4d\	.	2dd\
4G\	4B\	.	.
4D/	4A/	.	4dd\
4GG/	4G/	.	4b-\
=49-	=49-	=49-	=49-
4D/	4F#X/	4r	4a\
8G\	4G/	4dd\	4g/
8G\	.	.	.
4F#X\	4r	4dd\	4a\
4G\	4d\	4b-\	8b-\
.	.	.	8dd\
4D/	4d\	4a\	4dd\
4GG/	4d\	4g\	4b-\
4D/	4d\	4f#X\	4a\
4G\	4B-y\	4g\	4g/
=50	=50	=50	=50
2F#X\	2A/	2d\	2a\
4G\	4G/	4d\	4b-\
4G\	4B-\	4d\	4b-\
2.E-X\	2.B-\	2.g\	1.ee-X
4D/	4B-\	4f\	.
=51-	=51-	=51-	=51-
2C/	4.E-X/	4e-X\	.
.	.	4c/	.
.	8E-/	.	.
2BB-/	4B-\	2f\	2dd\
.	4B-\	.	.
2Fny\	2c\	2.f\	2cc\
2FF/	2c\	.	2cc\
.	.	4f\	.
=52	=52	=52	=52
2.BB-/	2.d\	2.f\	2b-\
.	.	.	2dd\
4BB-/	4D/	4f\	.
4.C/	4.G/	4.e\	4.cc\
8AA/	8c\	8f\	8cc\
4BB-/	4F/	4d\	4b-\
4GG/	4B-\	4e\	4b-\
=53-	=53-	=53-	=53-
2.D/	2d\	2f\	2.a\
.	2d\	4d\	.
4C/	.	4e\	4a\
2BB-/	2.D/	4f\	2d/
.	.	4d\	.
4AA/	.	2g\	[y2dd\
4GG/	4E/	.	.
=54	=54	=54	=54
!	!	!	!LO:N:xstem:cue
1.D	2F#X/	1.d	4dd\]
.	.	.	4cc\
.	2G/	.	2b-\
.	2.A/	.	2a\
2D/	.	2d\	2a\
.	4A/	.	.
=55-	=55-	=55-	=55-
!	!	!	!LO:N:acc=#
2GG/	2G/	2d\	2bn\
2C/	2G/	2e-X\	2cc\
2C/	2G/	2e-\	2cc\
!LO:N:acc=#	!	!	!
2BBn/	2G/	2d\	2dd\
=56	=56	=56	=56
1.C	2.c\	4c/	2.ee-X\
.	.	4d\	.
.	.	4e-X\	.
.	4d\	4f\	4dd\
.	2e-X\	2g\	2cc\
2C/	2c\	2g\	2ee-X\
=57-	=57-	=57-	=57-
0GGl	0dl	0gl	0ddl
==	==	==	==
*-	*-	*-	*-
!!!system-decoration: *
!!!RDF**kern: > = above
!!!RDF**kern: < = below
!!!RDF**kern: l = terminal long
!!!ENC: Filip Voros
!!!END: 2021-12-23
!!!ENC: Andrzej Kubiczek
!!!END: 2021-12-27
